lib/brands/icons/google-hangouts.svg

<svg xmlns="http://www.w3.org/2000/svg" fill="none" aria-hidden="true" viewBox="0 0 48 48"><g id="google-hangouts-Icon"><g id="Group"><circle id="bg" cx="24" cy="24" r="18" fill="#0F9D58"/><path id="google_hangouts" fill="white" fill-rule="evenodd" d="M23.9956 12.4286C30.3832 12.4286 35.5716 17.6078 35.5716 23.9954C35.5716 29.9143 31.024 35.8642 23.9956 39.4286V34.9286C17.9443 34.9286 12.4287 30.0467 12.4287 23.9954C12.4287 17.6078 17.6079 12.4286 23.9956 12.4286ZM17.5716 25.2857V20.1429H22.7144V25.2857C22.7144 26.8286 21.471 27.8571 20.143 27.8571V25.2857H17.5716ZM25.2859 25.2857V20.1429H30.4287V25.2857C30.4287 26.8286 29.1853 27.8571 27.8573 27.8571V25.2857H25.2859Z" clip-rule="evenodd"/></g></g></svg>

<svg xmlns="http://www.w3.org/2000/svg" fill="none" aria-hidden="true" viewBox="0 0 48 48"><circle cx="24" cy="24" r="18" fill="#0F9D58"/><path fill="#fff" fill-rule="evenodd" d="M23.996 12.429c6.387 0 11.576 5.179 11.576 11.566 0 5.92-4.548 11.87-11.576 15.434v-4.5c-6.052 0-11.567-4.882-11.567-10.934 0-6.387 5.179-11.566 11.567-11.566Zm-6.424 12.857v-5.143h5.142v5.143c0 1.543-1.243 2.571-2.571 2.571v-2.571h-2.571Zm7.714 0v-5.143h5.143v5.143c0 1.543-1.244 2.571-2.572 2.571v-2.571h-2.571Z" clip-rule="evenodd"/></svg>
